;FLAVOR:Marlin
;TIME:658
;Filament used: 2.33496m
;Layer height: 0.5
;MINX:65.75
;MINY:65.75
;MINZ:1
;MAXX:114.25
;MAXY:114.25
;MAXZ:50.25
;Generated with Cura_SteamEngine 5.0.0
M105
M109 S0
M82 ;absolute extrusion mode
G28 ;Home
G1 Z15.0 F6000 ;Move the platform down 15mm
;Prime the extruder
G92 E0
G1 F200 E3
G92 E0
G92 E0
G92 E0
;LAYER_COUNT:99
;LAYER:0
M107
;MESH:cube.glb
G0 F1800 X65.75 Y114.25 Z1
;TYPE:WALL-OUTER
G1 X65.75 Y65.75 E11.4039
G1 X114.25 Y65.75 E22.8078
G1 X114.25 Y114.25 E34.2117
G1 X65.75 Y114.25 E45.6156
G1 X65.75 Y65.75 Z1.25 E57.01965
G1 X114.25 Y65.75 Z1.5 E68.4237
G1 X114.25 Y114.25 Z1.75 E79.82775
G1 X65.75 Y114.25 Z2 E91.23181
;TIME_ELAPSED:17.352821
;LAYER:1
;MESH:cube.glb
G0 F2700 X65.75 Y114.25 Z1.5
;TYPE:WALL-OUTER
G1 F1800 X65.75 Y65.75 Z1.625 E96.93377
G1 X114.25 Y65.75 Z1.75 E102.63574
G1 X114.25 Y114.25 Z1.875 E108.33771
G1 X65.75 Y114.25 Z2 E114.03968
;TIME_ELAPSED:23.970055
;LAYER:2
;TYPE:WALL-OUTER
;MESH:cube.glb
G1 X65.75 Y65.75 Z2.125 E119.74165
G1 X114.25 Y65.75 Z2.25 E125.44362
G1 X114.25 Y114.25 Z2.375 E131.14559
G1 X65.75 Y114.25 Z2.5 E136.84756
;TIME_ELAPSED:30.449918
;LAYER:3
;TYPE:WALL-OUTER
;MESH:cube.glb
G1 X65.75 Y65.75 Z2.625 E142.54953
G1 X114.25 Y65.75 Z2.75 E148.25149
G1 X114.25 Y114.25 Z2.875 E153.95346
G1 X65.75 Y114.25 Z3 E159.65543
;TIME_ELAPSED:36.929781
;LAYER:4
;TYPE:WALL-OUTER
;MESH:cube.glb
G1 X65.75 Y65.75 Z3.125 E165.3574
G1 X114.25 Y65.75 Z3.25 E171.05937
G1 X114.25 Y114.25 Z3.375 E176.76134
G1 X65.75 Y114.25 Z3.5 E182.46331
;TIME_ELAPSED:43.409645
;LAYER:5
;TYPE:WALL-OUTER
;MESH:cube.glb
G1 X65.75 Y65.75 Z3.625 E188.16528
G1 X114.25 Y65.75 Z3.75 E193.86725
G1 X114.25 Y114.25 Z3.875 E199.56921
G1 X65.75 Y114.25 Z4 E205.27118
;TIME_ELAPSED:49.889508
;LAYER:6
;TYPE:WALL-OUTER
;MESH:cube.glb
G1 X65.75 Y65.75 Z4.125 E210.97315
G1 X114.25 Y65.75 Z4.25 E216.67512
G1 X114.25 Y114.25 Z4.375 E222.37709
G1 X65.75 Y114.25 Z4.5 E228.07906
;TIME_ELAPSED:56.369371
;LAYER:7
;TYPE:WALL-OUTER
;MESH:cube.glb
G1 X65.75 Y65.75 Z4.625 E233.78103
G1 X114.25 Y65.75 Z4.75 E239.483
G1 X114.25 Y114.25 Z4.875 E245.18497
G1 X65.75 Y114.25 Z5 E250.88693
;TIME_ELAPSED:62.849235
;LAYER:8
;TYPE:WALL-OUTER
;MESH:cube.glb
G1 X65.75 Y65.75 Z5.125 E256.5889
G1 X114.25 Y65.75 Z5.25 E262.29087
G1 X114.25 Y114.25 Z5.375 E267.99284
G1 X65.75 Y114.25 Z5.5 E273.69481
;TIME_ELAPSED:69.329098
;LAYER:9
;TYPE:WALL-OUTER
;MESH:cube.glb
G1 X65.75 Y65.75 Z5.625 E279.39678
G1 X114.25 Y65.75 Z5.75 E285.09875
G1 X114.25 Y114.25 Z5.875 E290.80072
G1 X65.75 Y114.25 Z6 E296.50268
;TIME_ELAPSED:75.808961
;LAYER:10
;TYPE:WALL-OUTER
;MESH:cube.glb
G1 X65.75 Y65.75 Z6.125 E302.20465
G1 X114.25 Y65.75 Z6.25 E307.90662
G1 X114.25 Y114.25 Z6.375 E313.60859
G1 X65.75 Y114.25 Z6.5 E319.31056
;TIME_ELAPSED:82.288825
;LAYER:11
;TYPE:WALL-OUTER
;MESH:cube.glb
G1 X65.75 Y65.75 Z6.625 E325.01253
G1 X114.25 Y65.75 Z6.75 E330.7145
G1 X114.25 Y114.25 Z6.875 E336.41647
G1 X65.75 Y114.25 Z7 E342.11844
;TIME_ELAPSED:88.768688
;LAYER:12
;TYPE:WALL-OUTER
;MESH:cube.glb
G1 X65.75 Y65.75 Z7.125 E347.8204
G1 X114.25 Y65.75 Z7.25 E353.52237
G1 X114.25 Y114.25 Z7.375 E359.22434
G1 X65.75 Y114.25 Z7.5 E364.92631
;TIME_ELAPSED:95.248551
;LAYER:13
;TYPE:WALL-OUTER
;MESH:cube.glb
G1 X65.75 Y65.75 Z7.625 E370.62828
G1 X114.25 Y65.75 Z7.75 E376.33025
G1 X114.25 Y114.25 Z7.875 E382.03222
G1 X65.75 Y114.25 Z8 E387.73419
;TIME_ELAPSED:101.728415
;LAYER:14
;TYPE:WALL-OUTER
;MESH:cube.glb
G1 X65.75 Y65.75 Z8.125 E393.43616
G1 X114.25 Y65.75 Z8.25 E399.13812
G1 X114.25 Y114.25 Z8.375 E404.84009
G1 X65.75 Y114.25 Z8.5 E410.54206
;TIME_ELAPSED:108.208278
;LAYER:15
;TYPE:WALL-OUTER
;MESH:cube.glb
G1 X65.75 Y65.75 Z8.625 E416.24403
G1 X114.25 Y65.75 Z8.75 E421.946
G1 X114.25 Y114.25 Z8.875 E427.64797
G1 X65.75 Y114.25 Z9 E433.34994
;TIME_ELAPSED:114.688141
;LAYER:16
;TYPE:WALL-OUTER
;MESH:cube.glb
G1 X65.75 Y65.75 Z9.125 E439.05191
G1 X114.25 Y65.75 Z9.25 E444.75388
G1 X114.25 Y114.25 Z9.375 E450.45584
G1 X65.75 Y114.25 Z9.5 E456.15781
;TIME_ELAPSED:121.168005
;LAYER:17
;TYPE:WALL-OUTER
;MESH:cube.glb
G1 X65.75 Y65.75 Z9.625 E461.85978
G1 X114.25 Y65.75 Z9.75 E467.56175
G1 X114.25 Y114.25 Z9.875 E473.26372
G1 X65.75 Y114.25 Z10 E478.96569
;TIME_ELAPSED:127.647868
;LAYER:18
;TYPE:WALL-OUTER
;MESH:cube.glb
G1 X65.75 Y65.75 Z10.125 E484.66766
G1 X114.25 Y65.75 Z10.25 E490.36963
G1 X114.25 Y114.25 Z10.375 E496.0716
G1 X65.75 Y114.25 Z10.5 E501.77356
;TIME_ELAPSED:134.127731
;LAYER:19
;TYPE:WALL-OUTER
;MESH:cube.glb
G1 X65.75 Y65.75 Z10.625 E507.47553
G1 X114.25 Y65.75 Z10.75 E513.1775
G1 X114.25 Y114.25 Z10.875 E518.87947
G1 X65.75 Y114.25 Z11 E524.58144
;TIME_ELAPSED:140.607595
;LAYER:20
;TYPE:WALL-OUTER
;MESH:cube.glb
G1 X65.75 Y65.75 Z11.125 E530.28341
G1 X114.25 Y65.75 Z11.25 E535.98538
G1 X114.25 Y114.25 Z11.375 E541.68735
G1 X65.75 Y114.25 Z11.5 E547.38932
;TIME_ELAPSED:147.087458
;LAYER:21
;TYPE:WALL-OUTER
;MESH:cube.glb
G1 X65.75 Y65.75 Z11.625 E553.09128
G1 X114.25 Y65.75 Z11.75 E558.79325
G1 X114.25 Y114.25 Z11.875 E564.49522
G1 X65.75 Y114.25 Z12 E570.19719
;TIME_ELAPSED:153.567321
;LAYER:22
;TYPE:WALL-OUTER
;MESH:cube.glb
G1 X65.75 Y65.75 Z12.125 E575.89916
G1 X114.25 Y65.75 Z12.25 E581.60113
G1 X114.25 Y114.25 Z12.375 E587.3031
G1 X65.75 Y114.25 Z12.5 E593.00507
;TIME_ELAPSED:160.047185
;LAYER:23
;TYPE:WALL-OUTER
;MESH:cube.glb
G1 X65.75 Y65.75 Z12.625 E598.70704
G1 X114.25 Y65.75 Z12.75 E604.409
G1 X114.25 Y114.25 Z12.875 E610.11097
G1 X65.75 Y114.25 Z13 E615.81294
;TIME_ELAPSED:166.527048
;LAYER:24
;TYPE:WALL-OUTER
;MESH:cube.glb
G1 X65.75 Y65.75 Z13.125 E621.51491
G1 X114.25 Y65.75 Z13.25 E627.21688
G1 X114.25 Y114.25 Z13.375 E632.91885
G1 X65.75 Y114.25 Z13.5 E638.62082
;TIME_ELAPSED:173.006911
;LAYER:25
;TYPE:WALL-OUTER
;MESH:cube.glb
G1 X65.75 Y65.75 Z13.625 E644.32279
G1 X114.25 Y65.75 Z13.75 E650.02476
G1 X114.25 Y114.25 Z13.875 E655.72672
G1 X65.75 Y114.25 Z14 E661.42869
;TIME_ELAPSED:179.486775
;LAYER:26
;TYPE:WALL-OUTER
;MESH:cube.glb
G1 X65.75 Y65.75 Z14.125 E667.13066
G1 X114.25 Y65.75 Z14.25 E672.83263
G1 X114.25 Y114.25 Z14.375 E678.5346
G1 X65.75 Y114.25 Z14.5 E684.23657
;TIME_ELAPSED:185.966638
;LAYER:27
;TYPE:WALL-OUTER
;MESH:cube.glb
G1 X65.75 Y65.75 Z14.625 E689.93854
G1 X114.25 Y65.75 Z14.75 E695.64051
G1 X114.25 Y114.25 Z14.875 E701.34248
G1 X65.75 Y114.25 Z15 E707.04444
;TIME_ELAPSED:192.446501
;LAYER:28
;TYPE:WALL-OUTER
;MESH:cube.glb
G1 X65.75 Y65.75 Z15.125 E712.74641
G1 X114.25 Y65.75 Z15.25 E718.44838
G1 X114.25 Y114.25 Z15.375 E724.15035
G1 X65.75 Y114.25 Z15.5 E729.85232
;TIME_ELAPSED:198.926365
;LAYER:29
;TYPE:WALL-OUTER
;MESH:cube.glb
G1 X65.75 Y65.75 Z15.625 E735.55429
G1 X114.25 Y65.75 Z15.75 E741.25626
G1 X114.25 Y114.25 Z15.875 E746.95823
G1 X65.75 Y114.25 Z16 E752.6602
;TIME_ELAPSED:205.406228
;LAYER:30
;TYPE:WALL-OUTER
;MESH:cube.glb
G1 X65.75 Y65.75 Z16.125 E758.36216
G1 X114.25 Y65.75 Z16.25 E764.06413
G1 X114.25 Y114.25 Z16.375 E769.7661
G1 X65.75 Y114.25 Z16.5 E775.46807
;TIME_ELAPSED:211.886091
;LAYER:31
;TYPE:WALL-OUTER
;MESH:cube.glb
G1 X65.75 Y65.75 Z16.625 E781.17004
G1 X114.25 Y65.75 Z16.75 E786.87201
G1 X114.25 Y114.25 Z16.875 E792.57398
G1 X65.75 Y114.25 Z17 E798.27595
;TIME_ELAPSED:218.365955
;LAYER:32
;TYPE:WALL-OUTER
;MESH:cube.glb
G1 X65.75 Y65.75 Z17.125 E803.97792
G1 X114.25 Y65.75 Z17.25 E809.67988
G1 X114.25 Y114.25 Z17.375 E815.38185
G1 X65.75 Y114.25 Z17.5 E821.08382
;TIME_ELAPSED:224.845818
;LAYER:33
;TYPE:WALL-OUTER
;MESH:cube.glb
G1 X65.75 Y65.75 Z17.625 E826.78579
G1 X114.25 Y65.75 Z17.75 E832.48776
G1 X114.25 Y114.25 Z17.875 E838.18973
G1 X65.75 Y114.25 Z18 E843.8917
;TIME_ELAPSED:231.325681
;LAYER:34
;TYPE:WALL-OUTER
;MESH:cube.glb
G1 X65.75 Y65.75 Z18.125 E849.59367
G1 X114.25 Y65.75 Z18.25 E855.29564
G1 X114.25 Y114.25 Z18.375 E860.9976
G1 X65.75 Y114.25 Z18.5 E866.69957
;TIME_ELAPSED:237.805545
;LAYER:35
;TYPE:WALL-OUTER
;MESH:cube.glb
G1 X65.75 Y65.75 Z18.625 E872.40154
G1 X114.25 Y65.75 Z18.75 E878.10351
G1 X114.25 Y114.25 Z18.875 E883.80548
G1 X65.75 Y114.25 Z19 E889.50745
;TIME_ELAPSED:244.285408
;LAYER:36
;TYPE:WALL-OUTER
;MESH:cube.glb
G1 X65.75 Y65.75 Z19.125 E895.20942
G1 X114.25 Y65.75 Z19.25 E900.91139
G1 X114.25 Y114.25 Z19.375 E906.61336
G1 X65.75 Y114.25 Z19.5 E912.31532
;TIME_ELAPSED:250.765272
;LAYER:37
;TYPE:WALL-OUTER
;MESH:cube.glb
G1 X65.75 Y65.75 Z19.625 E918.01729
G1 X114.25 Y65.75 Z19.75 E923.71926
G1 X114.25 Y114.25 Z19.875 E929.42123
G1 X65.75 Y114.25 Z20 E935.1232
;TIME_ELAPSED:257.245135
;LAYER:38
;TYPE:WALL-OUTER
;MESH:cube.glb
G1 X65.75 Y65.75 Z20.125 E940.82517
G1 X114.25 Y65.75 Z20.25 E946.52714
G1 X114.25 Y114.25 Z20.375 E952.22911
G1 X65.75 Y114.25 Z20.5 E957.93108
;TIME_ELAPSED:263.724998
;LAYER:39
;TYPE:WALL-OUTER
;MESH:cube.glb
G1 X65.75 Y65.75 Z20.625 E963.63304
G1 X114.25 Y65.75 Z20.75 E969.33501
G1 X114.25 Y114.25 Z20.875 E975.03698
G1 X65.75 Y114.25 Z21 E980.73895
;TIME_ELAPSED:270.204862
;LAYER:40
;TYPE:WALL-OUTER
;MESH:cube.glb
G1 X65.75 Y65.75 Z21.125 E986.44092
G1 X114.25 Y65.75 Z21.25 E992.14289
G1 X114.25 Y114.25 Z21.375 E997.84486
G1 X65.75 Y114.25 Z21.5 E1003.54683
;TIME_ELAPSED:276.684725
;LAYER:41
;TYPE:WALL-OUTER
;MESH:cube.glb
G1 X65.75 Y65.75 Z21.625 E1009.2488
G1 X114.25 Y65.75 Z21.75 E1014.95076
G1 X114.25 Y114.25 Z21.875 E1020.65273
G1 X65.75 Y114.25 Z22 E1026.3547
;TIME_ELAPSED:283.164588
;LAYER:42
;TYPE:WALL-OUTER
;MESH:cube.glb
G1 X65.75 Y65.75 Z22.125 E1032.05667
G1 X114.25 Y65.75 Z22.25 E1037.75864
G1 X114.25 Y114.25 Z22.375 E1043.46061
G1 X65.75 Y114.25 Z22.5 E1049.16258
;TIME_ELAPSED:289.644452
;LAYER:43
;TYPE:WALL-OUTER
;MESH:cube.glb
G1 X65.75 Y65.75 Z22.625 E1054.86455
G1 X114.25 Y65.75 Z22.75 E1060.56652
G1 X114.25 Y114.25 Z22.875 E1066.26848
G1 X65.75 Y114.25 Z23 E1071.97045
;TIME_ELAPSED:296.124315
;LAYER:44
;TYPE:WALL-OUTER
;MESH:cube.glb
G1 X65.75 Y65.75 Z23.125 E1077.67242
G1 X114.25 Y65.75 Z23.25 E1083.37439
G1 X114.25 Y114.25 Z23.375 E1089.07636
G1 X65.75 Y114.25 Z23.5 E1094.77833
;TIME_ELAPSED:302.604178
;LAYER:45
;TYPE:WALL-OUTER
;MESH:cube.glb
G1 X65.75 Y65.75 Z23.625 E1100.4803
G1 X114.25 Y65.75 Z23.75 E1106.18227
G1 X114.25 Y114.25 Z23.875 E1111.88424
G1 X65.75 Y114.25 Z24 E1117.5862
;TIME_ELAPSED:309.084042
;LAYER:46
;TYPE:WALL-OUTER
;MESH:cube.glb
G1 X65.75 Y65.75 Z24.125 E1123.28817
G1 X114.25 Y65.75 Z24.25 E1128.99014
G1 X114.25 Y114.25 Z24.375 E1134.69211
G1 X65.75 Y114.25 Z24.5 E1140.39408
;TIME_ELAPSED:315.563905
;LAYER:47
;TYPE:WALL-OUTER
;MESH:cube.glb
G1 X65.75 Y65.75 Z24.625 E1146.09605
G1 X114.25 Y65.75 Z24.75 E1151.79802
G1 X114.25 Y114.25 Z24.875 E1157.49999
G1 X65.75 Y114.25 Z25 E1163.20196
;TIME_ELAPSED:322.043768
;LAYER:48
;TYPE:WALL-OUTER
;MESH:cube.glb
G1 X65.75 Y65.75 Z25.125 E1168.90392
G1 X114.25 Y65.75 Z25.25 E1174.60589
G1 X114.25 Y114.25 Z25.375 E1180.30786
G1 X65.75 Y114.25 Z25.5 E1186.00983
;TIME_ELAPSED:328.523632
;LAYER:49
;TYPE:WALL-OUTER
;MESH:cube.glb
G1 X65.75 Y65.75 Z25.625 E1191.7118
G1 X114.25 Y65.75 Z25.75 E1197.41377
G1 X114.25 Y114.25 Z25.875 E1203.11574
G1 X65.75 Y114.25 Z26 E1208.81771
;TIME_ELAPSED:335.003495
;LAYER:50
;TYPE:WALL-OUTER
;MESH:cube.glb
G1 X65.75 Y65.75 Z26.125 E1214.51968
G1 X114.25 Y65.75 Z26.25 E1220.22164
G1 X114.25 Y114.25 Z26.375 E1225.92361
G1 X65.75 Y114.25 Z26.5 E1231.62558
;TIME_ELAPSED:341.483358
;LAYER:51
;TYPE:WALL-OUTER
;MESH:cube.glb
G1 X65.75 Y65.75 Z26.625 E1237.32755
G1 X114.25 Y65.75 Z26.75 E1243.02952
G1 X114.25 Y114.25 Z26.875 E1248.73149
G1 X65.75 Y114.25 Z27 E1254.43346
;TIME_ELAPSED:347.963222
;LAYER:52
;TYPE:WALL-OUTER
;MESH:cube.glb
G1 X65.75 Y65.75 Z27.125 E1260.13543
G1 X114.25 Y65.75 Z27.25 E1265.8374
G1 X114.25 Y114.25 Z27.375 E1271.53936
G1 X65.75 Y114.25 Z27.5 E1277.24133
;TIME_ELAPSED:354.443085
;LAYER:53
;TYPE:WALL-OUTER
;MESH:cube.glb
G1 X65.75 Y65.75 Z27.625 E1282.9433
G1 X114.25 Y65.75 Z27.75 E1288.64527
G1 X114.25 Y114.25 Z27.875 E1294.34724
G1 X65.75 Y114.25 Z28 E1300.04921
;TIME_ELAPSED:360.922948
;LAYER:54
;TYPE:WALL-OUTER
;MESH:cube.glb
G1 X65.75 Y65.75 Z28.125 E1305.75118
G1 X114.25 Y65.75 Z28.25 E1311.45315
G1 X114.25 Y114.25 Z28.375 E1317.15512
G1 X65.75 Y114.25 Z28.5 E1322.85708
;TIME_ELAPSED:367.402812
;LAYER:55
;TYPE:WALL-OUTER
;MESH:cube.glb
G1 X65.75 Y65.75 Z28.625 E1328.55905
G1 X114.25 Y65.75 Z28.75 E1334.26102
G1 X114.25 Y114.25 Z28.875 E1339.96299
G1 X65.75 Y114.25 Z29 E1345.66496
;TIME_ELAPSED:373.882675
;LAYER:56
;TYPE:WALL-OUTER
;MESH:cube.glb
G1 X65.75 Y65.75 Z29.125 E1351.36693
G1 X114.25 Y65.75 Z29.25 E1357.0689
G1 X114.25 Y114.25 Z29.375 E1362.77087
G1 X65.75 Y114.25 Z29.5 E1368.47284
;TIME_ELAPSED:380.362538
;LAYER:57
;TYPE:WALL-OUTER
;MESH:cube.glb
G1 X65.75 Y65.75 Z29.625 E1374.1748
G1 X114.25 Y65.75 Z29.75 E1379.87677
G1 X114.25 Y114.25 Z29.875 E1385.57874
G1 X65.75 Y114.25 Z30 E1391.28071
;TIME_ELAPSED:386.842402
;LAYER:58
;TYPE:WALL-OUTER
;MESH:cube.glb
G1 X65.75 Y65.75 Z30.125 E1396.98268
G1 X114.25 Y65.75 Z30.25 E1402.68465
G1 X114.25 Y114.25 Z30.375 E1408.38662
G1 X65.75 Y114.25 Z30.5 E1414.08859
;TIME_ELAPSED:393.322265
;LAYER:59
;TYPE:WALL-OUTER
;MESH:cube.glb
G1 X65.75 Y65.75 Z30.625 E1419.79056
G1 X114.25 Y65.75 Z30.75 E1425.49252
G1 X114.25 Y114.25 Z30.875 E1431.19449
G1 X65.75 Y114.25 Z31 E1436.89646
;TIME_ELAPSED:399.802128
;LAYER:60
;TYPE:WALL-OUTER
;MESH:cube.glb
G1 X65.75 Y65.75 Z31.125 E1442.59843
G1 X114.25 Y65.75 Z31.25 E1448.3004
G1 X114.25 Y114.25 Z31.375 E1454.00237
G1 X65.75 Y114.25 Z31.5 E1459.70434
;TIME_ELAPSED:406.281992
;LAYER:61
;TYPE:WALL-OUTER
;MESH:cube.glb
G1 X65.75 Y65.75 Z31.625 E1465.40631
G1 X114.25 Y65.75 Z31.75 E1471.10828
G1 X114.25 Y114.25 Z31.875 E1476.81024
G1 X65.75 Y114.25 Z32 E1482.51221
;TIME_ELAPSED:412.761855
;LAYER:62
;TYPE:WALL-OUTER
;MESH:cube.glb
G1 X65.75 Y65.75 Z32.125 E1488.21418
G1 X114.25 Y65.75 Z32.25 E1493.91615
G1 X114.25 Y114.25 Z32.375 E1499.61812
G1 X65.75 Y114.25 Z32.5 E1505.32009
;TIME_ELAPSED:419.241718
;LAYER:63
;TYPE:WALL-OUTER
;MESH:cube.glb
G1 X65.75 Y65.75 Z32.625 E1511.02206
G1 X114.25 Y65.75 Z32.75 E1516.72403
G1 X114.25 Y114.25 Z32.875 E1522.426
G1 X65.75 Y114.25 Z33 E1528.12796
;TIME_ELAPSED:425.721582
;LAYER:64
;TYPE:WALL-OUTER
;MESH:cube.glb
G1 X65.75 Y65.75 Z33.125 E1533.82993
G1 X114.25 Y65.75 Z33.25 E1539.5319
G1 X114.25 Y114.25 Z33.375 E1545.23387
G1 X65.75 Y114.25 Z33.5 E1550.93584
;TIME_ELAPSED:432.201445
;LAYER:65
;TYPE:WALL-OUTER
;MESH:cube.glb
G1 X65.75 Y65.75 Z33.625 E1556.63781
G1 X114.25 Y65.75 Z33.75 E1562.33978
G1 X114.25 Y114.25 Z33.875 E1568.04175
G92 E0
G1 X65.75 Y114.25 Z34 E5.70197
;TIME_ELAPSED:438.682166
;LAYER:66
;TYPE:WALL-OUTER
;MESH:cube.glb
G1 X65.75 Y65.75 Z34.125 E11.40394
G1 X114.25 Y65.75 Z34.25 E17.10591
G1 X114.25 Y114.25 Z34.375 E22.80788
G1 X65.75 Y114.25 Z34.5 E28.50984
;TIME_ELAPSED:445.162030
;LAYER:67
;TYPE:WALL-OUTER
;MESH:cube.glb
G1 X65.75 Y65.75 Z34.625 E34.21181
G1 X114.25 Y65.75 Z34.75 E39.91378
G1 X114.25 Y114.25 Z34.875 E45.61575
G1 X65.75 Y114.25 Z35 E51.31772
;TIME_ELAPSED:451.641893
;LAYER:68
;TYPE:WALL-OUTER
;MESH:cube.glb
G1 X65.75 Y65.75 Z35.125 E57.01969
G1 X114.25 Y65.75 Z35.25 E62.72166
G1 X114.25 Y114.25 Z35.375 E68.42363
G1 X65.75 Y114.25 Z35.5 E74.1256
;TIME_ELAPSED:458.121756
;LAYER:69
;TYPE:WALL-OUTER
;MESH:cube.glb
G1 X65.75 Y65.75 Z35.625 E79.82756
G1 X114.25 Y65.75 Z35.75 E85.52953
G1 X114.25 Y114.25 Z35.875 E91.2315
G1 X65.75 Y114.25 Z36 E96.93347
;TIME_ELAPSED:464.601620
;LAYER:70
;TYPE:WALL-OUTER
;MESH:cube.glb
G1 X65.75 Y65.75 Z36.125 E102.63544
G1 X114.25 Y65.75 Z36.25 E108.33741
G1 X114.25 Y114.25 Z36.375 E114.03938
G1 X65.75 Y114.25 Z36.5 E119.74135
;TIME_ELAPSED:471.081483
;LAYER:71
;TYPE:WALL-OUTER
;MESH:cube.glb
G1 X65.75 Y65.75 Z36.625 E125.44332
G1 X114.25 Y65.75 Z36.75 E131.14528
G1 X114.25 Y114.25 Z36.875 E136.84725
G1 X65.75 Y114.25 Z37 E142.54922
;TIME_ELAPSED:477.561346
;LAYER:72
;TYPE:WALL-OUTER
;MESH:cube.glb
G1 X65.75 Y65.75 Z37.125 E148.25119
G1 X114.25 Y65.75 Z37.25 E153.95316
G1 X114.25 Y114.25 Z37.375 E159.65513
G1 X65.75 Y114.25 Z37.5 E165.3571
;TIME_ELAPSED:484.041210
;LAYER:73
;TYPE:WALL-OUTER
;MESH:cube.glb
G1 X65.75 Y65.75 Z37.625 E171.05907
G1 X114.25 Y65.75 Z37.75 E176.76104
